src/status/16/changes-allow.svg

<svg viewBox="0 0 16 16" xmlns="http://www.w3.org/2000/svg">
 <path d="m0.801 8c-0.443 0-0.801 0.358-0.801 0.801v7.199h10v-7.199c0-0.443-0.358-0.801-0.801-0.801" fill="#ebcb8b"/>
 <path d="m11 1a4 4 0 0 0-4 4v3h2v-3a2 2 0 0 1 2-2 2 2 0 0 1 2 2v3h2v-3a4 4 0 0 0-4-4z" fill="#7b88a1"/>
</svg>

<svg xmlns="http://www.w3.org/2000/svg" viewBox="0 0 16 16">
 <path d="m 0.801 8 c -0.443 0 -0.801 0.358 -0.801 0.801 0 2.4 0 4.799 0 7.199 c 3.333 0 6.667 0 10 0 0 -2.4 0 -4.799 0 -7.199 c 0 -0.443 -0.358 -0.801 -0.801 -0.801" style="fill:#ebcb8b;opacity:1;fill-opacity:1;stroke:none"/>
 <path d="M 11 1 A 4 4 0 0 0 7 5 L 7 8 L 9 8 L 9 5 A 2 2 0 0 1 11 3 A 2 2 0 0 1 13 5 L 13 8 L 15 8 L 15 5 A 4 4 0 0 0 11 1 z" style="fill:#7b88a1;opacity:1;fill-opacity:1;stroke:none"/>
</svg>
